( Made using CamBam - http://www.cambam.co.uk )
( pointer 9/2/2023 5:05:45 PM )
( Post processor: Default )
( T0 : 1.5 )
G21 G90 G64 G40
G0 Z3.0
( T0 : 1.5 )
T0 M6
( Profile1 )
G17
M3 S1000
G0 X1.0 Y-15.4781
G0 Z1.0
G1 F75.0 Z-0.7
G2 X-0.5 Y-16.3442 I-1.0 J0.0
G2 Y-14.6121 I0.5 J0.866
G2 X1.0 Y-15.4781 I0.5 J-0.866
G1 Z-1.4
G2 X-0.5 Y-16.3442 I-1.0 J0.0
G2 Y-14.6121 I0.5 J0.866
G2 X1.0 Y-15.4781 I0.5 J-0.866
G1 Z-2.0
G2 X-0.5 Y-16.3442 I-1.0 J0.0
G2 Y-14.6121 I0.5 J0.866
G2 X1.0 Y-15.4781 I0.5 J-0.866
( Profile2 )
S1000
G0 Z3.0
G0 X1.75 Y-12.0
G0 Z1.0
G1 Z-2.0
G1 Y-11.2002
G3 X1.0486 Y-9.7992 I-1.75 J0.0
G2 X0.9484 Y-9.599 I0.1498 J0.2001
G1 Y8.174
G3 X1.1329 Y9.8537 I-0.9484 J0.9541
G2 X0.75 Y11.1615 I2.0421 J1.3078
G3 X-0.75 I-0.75 J0.0
G2 X-1.1329 Y9.8537 I-2.425 J0.0
G3 X-0.9484 Y8.174 I1.1329 J-0.7255
G1 Y-9.599
G2 X-1.0486 Y-9.7992 I-0.25 J0.0
G3 X-1.75 Y-11.2002 I1.0486 J-1.401
G1 Y-12.6058
G2 X-1.8571 Y-12.811 I-0.25 J0.0
G3 X-2.8964 Y-14.0039 I1.8571 J-2.6671
G3 X-3.0048 Y-14.2398 Z1.0 I2.8964 J-1.4742
G3 X-3.2409 Y-15.7211 I3.0048 J-1.2384
G3 X-3.2112 Y-15.979 Z-2.0 I3.2409 J0.2429
G3 X3.2112 I3.2112 J0.5008
G3 X3.2409 Y-15.7211 Z1.0 I-3.2112 J0.5008
G3 X3.0048 Y-14.2398 I-3.2409 J0.2429
G3 X2.8964 Y-14.0039 Z-2.0 I-3.0048 J-1.2384
G3 X1.8571 Y-12.811 I-2.8964 J-1.4742
G2 X1.75 Y-12.6058 I0.1429 J0.2052
G1 Y-12.0
G0 Z3.0
M5
M30
