( Made using CamBam - http://www.cambam.co.uk )
( window 8/29/2023 8:16:44 PM )
( Post processor: Default )
( T0 : 3.0 )
G21 G90 G64 G40
G0 Z3.0
( T0 : 3.0 )
T0 M6
( Profile1 )
G17
M3 S1000
G0 X21.7063 Y-11.8391
G0 Z1.0
G1 F50.0 Z-2.0
G3 X22.6365 Y9.9456 I-21.7063 J11.8391
G3 X22.4302 Y10.4025 Z1.0 I-22.6365 J-9.9456
G3 X21.0052 Y13.0425 I-22.4302 J-10.4025
G3 X20.7365 Y13.4656 Z-2.0 I-21.0052 J-13.0425
G3 X-18.2741 Y16.6548 I-20.7365 J-13.4656
G3 X-18.608 Y16.2809 Z1.0 I18.2741 J-16.6548
G3 X-20.4428 Y13.9074 I18.608 J-16.2809
G3 X-20.7206 Y13.4902 Z-2.0 I20.4428 J-13.9074
G3 X-21.7063 Y-11.8391 I20.7206 J-13.4902
G3 X-16.7241 Y-14.7967 I4.9821 J2.7174
G1 X-3.8945
G1 X-3.3945 Z1.0
G1 X-0.3945
G1 X0.1055 Z-2.0
G1 X16.7241
G3 X21.7063 Y-11.8391 I0.0 J5.675
G0 Z3.0
M5
M30
